images/3247367.svg

<?xml version="1.0" encoding="UTF-8"?>
<svg xmlns="http://www.w3.org/2000/svg" xmlns:xlink="http://www.w3.org/1999/xlink" width="300pt" height="300pt" viewBox="0 0 300 300" version="1.1">
<defs>
<g>
<symbol overflow="visible" id="glyph0-0">
<path style="stroke:none;" d="M 0.453125 1.59375 L 0.453125 -6.34375 L 4.953125 -6.34375 L 4.953125 1.59375 Z M 0.953125 1.09375 L 4.453125 1.09375 L 4.453125 -5.84375 L 0.953125 -5.84375 Z M 0.953125 1.09375 "/>
</symbol>
<symbol overflow="visible" id="glyph0-1">
<path style="stroke:none;" d="M 3.546875 -5.953125 C 2.898438 -5.953125 2.382812 -5.710938 2 -5.234375 C 1.625 -4.753906 1.4375 -4.101562 1.4375 -3.28125 C 1.4375 -2.445312 1.625 -1.789062 2 -1.3125 C 2.382812 -0.832031 2.898438 -0.59375 3.546875 -0.59375 C 4.191406 -0.59375 4.703125 -0.832031 5.078125 -1.3125 C 5.453125 -1.789062 5.640625 -2.445312 5.640625 -3.28125 C 5.640625 -4.101562 5.453125 -4.753906 5.078125 -5.234375 C 4.703125 -5.710938 4.191406 -5.953125 3.546875 -5.953125 Z M 3.546875 -6.6875 C 4.460938 -6.6875 5.195312 -6.375 5.75 -5.75 C 6.300781 -5.132812 6.578125 -4.3125 6.578125 -3.28125 C 6.578125 -2.238281 6.300781 -1.410156 5.75 -0.796875 C 5.195312 -0.179688 4.460938 0.125 3.546875 0.125 C 2.617188 0.125 1.878906 -0.179688 1.328125 -0.796875 C 0.773438 -1.410156 0.5 -2.238281 0.5 -3.28125 C 0.5 -4.3125 0.773438 -5.132812 1.328125 -5.75 C 1.878906 -6.375 2.617188 -6.6875 3.546875 -6.6875 Z M 3.546875 -6.6875 "/>
</symbol>
<symbol overflow="visible" id="glyph0-2">
<path style="stroke:none;" d="M 0.890625 -6.5625 L 2.078125 -6.5625 L 4.984375 -1.078125 L 4.984375 -6.5625 L 5.84375 -6.5625 L 5.84375 0 L 4.65625 0 L 1.75 -5.484375 L 1.75 0 L 0.890625 0 Z M 0.890625 -6.5625 "/>
</symbol>
<symbol overflow="visible" id="glyph0-3">
<path style="stroke:none;" d="M 0.890625 -6.5625 L 1.765625 -6.5625 L 1.765625 -3.875 L 5 -3.875 L 5 -6.5625 L 5.890625 -6.5625 L 5.890625 0 L 5 0 L 5 -3.125 L 1.765625 -3.125 L 1.765625 0 L 0.890625 0 Z M 0.890625 -6.5625 "/>
</symbol>
<symbol overflow="visible" id="glyph0-4">
<path style="stroke:none;" d="M 4.8125 -6.34375 L 4.8125 -5.484375 C 4.476562 -5.640625 4.160156 -5.753906 3.859375 -5.828125 C 3.566406 -5.910156 3.28125 -5.953125 3 -5.953125 C 2.507812 -5.953125 2.132812 -5.859375 1.875 -5.671875 C 1.613281 -5.484375 1.484375 -5.21875 1.484375 -4.875 C 1.484375 -4.582031 1.570312 -4.363281 1.75 -4.21875 C 1.925781 -4.070312 2.253906 -3.953125 2.734375 -3.859375 L 3.28125 -3.75 C 3.9375 -3.625 4.421875 -3.398438 4.734375 -3.078125 C 5.054688 -2.765625 5.21875 -2.34375 5.21875 -1.8125 C 5.21875 -1.175781 5.003906 -0.691406 4.578125 -0.359375 C 4.148438 -0.0351562 3.523438 0.125 2.703125 0.125 C 2.390625 0.125 2.054688 0.0859375 1.703125 0.015625 C 1.359375 -0.046875 1 -0.148438 0.625 -0.296875 L 0.625 -1.203125 C 0.976562 -1.003906 1.328125 -0.851562 1.671875 -0.75 C 2.023438 -0.644531 2.367188 -0.59375 2.703125 -0.59375 C 3.203125 -0.59375 3.585938 -0.691406 3.859375 -0.890625 C 4.140625 -1.085938 4.28125 -1.375 4.28125 -1.75 C 4.28125 -2.070312 4.179688 -2.320312 3.984375 -2.5 C 3.785156 -2.675781 3.460938 -2.8125 3.015625 -2.90625 L 2.46875 -3.015625 C 1.8125 -3.148438 1.332031 -3.359375 1.03125 -3.640625 C 0.738281 -3.921875 0.59375 -4.3125 0.59375 -4.8125 C 0.59375 -5.382812 0.796875 -5.835938 1.203125 -6.171875 C 1.609375 -6.515625 2.171875 -6.6875 2.890625 -6.6875 C 3.203125 -6.6875 3.515625 -6.65625 3.828125 -6.59375 C 4.148438 -6.539062 4.476562 -6.457031 4.8125 -6.34375 Z M 4.8125 -6.34375 "/>
</symbol>
</g>
</defs>
<g id="surface47933">
<rect x="0" y="0" width="300" height="300" style="fill:rgb(100%,100%,100%);fill-opacity:1;stroke:none;"/>
<path style="fill:none;stroke-width:1.2;stroke-linecap:butt;stroke-linejoin:miter;stroke:rgb(0%,0%,0%);stroke-opacity:1;stroke-miterlimit:10;" d="M 228.152344 85.414062 L 220.152344 93.121094 "/>
<path style="fill:none;stroke-width:1.2;stroke-linecap:butt;stroke-linejoin:miter;stroke:rgb(100%,0%,0%);stroke-opacity:1;stroke-miterlimit:10;" d="M 220.152344 93.121094 L 212.152344 100.828125 "/>
<path style="fill:none;stroke-width:1.2;stroke-linecap:butt;stroke-linejoin:miter;stroke:rgb(100%,0%,0%);stroke-opacity:1;stroke-miterlimit:10;" d="M 212.152344 100.828125 L 214.824219 111.613281 "/>
<path style="fill:none;stroke-width:1.2;stroke-linecap:butt;stroke-linejoin:miter;stroke:rgb(0%,0%,0%);stroke-opacity:1;stroke-miterlimit:10;" d="M 214.824219 111.613281 L 217.5 122.394531 "/>
<path style=" stroke:none;fill-rule:nonzero;fill:rgb(100%,100%,100%);fill-opacity:1;" d="M 208.152344 95.328125 L 216.152344 95.328125 L 216.152344 106.328125 L 208.152344 106.328125 Z M 208.152344 95.328125 "/>
<g style="fill:rgb(100%,0%,0%);fill-opacity:1;">
  <use xlink:href="#glyph0-1" x="208.152344" y="103.991211"/>
</g>
<path style="fill:none;stroke-width:1.2;stroke-linecap:butt;stroke-linejoin:miter;stroke:rgb(0%,0%,0%);stroke-opacity:1;stroke-miterlimit:10;" d="M 216.777344 124.90625 L 227.453125 127.980469 "/>
<path style="fill:none;stroke-width:1.2;stroke-linecap:butt;stroke-linejoin:miter;stroke:rgb(100%,0%,0%);stroke-opacity:1;stroke-miterlimit:10;" d="M 227.453125 127.980469 L 238.128906 131.054688 "/>
<path style="fill:none;stroke-width:1.2;stroke-linecap:butt;stroke-linejoin:miter;stroke:rgb(0%,0%,0%);stroke-opacity:1;stroke-miterlimit:10;" d="M 218.222656 119.882812 L 228.898438 122.957031 "/>
<path style="fill:none;stroke-width:1.2;stroke-linecap:butt;stroke-linejoin:miter;stroke:rgb(100%,0%,0%);stroke-opacity:1;stroke-miterlimit:10;" d="M 228.898438 122.957031 L 239.574219 126.03125 "/>
<path style="fill:none;stroke-width:1;stroke-linecap:butt;stroke-linejoin:miter;stroke:rgb(0%,0%,0%);stroke-opacity:1;stroke-miterlimit:10;" d="M 201.5 137.808594 L 201.5 137.808594 M 203.988281 136.132812 L 203.265625 135.382812 M 206.480469 134.460938 L 205.03125 132.957031 M 208.96875 132.785156 L 206.796875 130.53125 M 211.457031 131.109375 L 208.5625 128.109375 M 213.945312 129.4375 L 210.328125 125.683594 M 216.4375 127.761719 L 212.09375 123.257812 M 218.925781 126.089844 L 213.859375 120.832031 M 220.222656 125.21875 L 214.78125 119.570312 "/>
<path style=" stroke:none;fill-rule:nonzero;fill:rgb(100%,100%,100%);fill-opacity:1;" d="M 234.851562 123.042969 L 242.851562 123.042969 L 242.851562 134.042969 L 234.851562 134.042969 Z M 234.851562 123.042969 "/>
<g style="fill:rgb(100%,0%,0%);fill-opacity:1;">
  <use xlink:href="#glyph0-1" x="234.851562" y="131.706055"/>
</g>
<path style="fill:none;stroke-width:1.2;stroke-linecap:butt;stroke-linejoin:miter;stroke:rgb(0%,0%,0%);stroke-opacity:1;stroke-miterlimit:10;" d="M 201.5 137.808594 L 179.9375 143.15625 "/>
<path style="fill:none;stroke-width:1.2;stroke-linecap:butt;stroke-linejoin:miter;stroke:rgb(0%,0%,0%);stroke-opacity:1;stroke-miterlimit:10;" d="M 195.351562 159.160156 L 201.5 137.808594 "/>
<path style=" stroke:none;fill-rule:nonzero;fill:rgb(0%,0%,0%);fill-opacity:1;" d="M 195.351562 159.160156 L 182.757812 140.4375 L 177.113281 145.878906 Z M 195.351562 159.160156 "/>
<path style="fill:none;stroke-width:1.2;stroke-linecap:butt;stroke-linejoin:miter;stroke:rgb(0%,0%,0%);stroke-opacity:1;stroke-miterlimit:10;" d="M 195.351562 159.160156 L 200.699219 180.722656 "/>
<path style=" stroke:none;fill-rule:nonzero;fill:rgb(0%,0%,0%);fill-opacity:1;" d="M 200.699219 180.722656 L 220.964844 190.640625 L 223.136719 183.105469 Z M 200.699219 180.722656 "/>
<path style="fill:none;stroke-width:1.2;stroke-linecap:butt;stroke-linejoin:miter;stroke:rgb(0%,0%,0%);stroke-opacity:1;stroke-miterlimit:10;" d="M 200.699219 180.722656 L 192.699219 188.429688 "/>
<path style="fill:none;stroke-width:1.2;stroke-linecap:butt;stroke-linejoin:miter;stroke:rgb(0%,0%,100%);stroke-opacity:1;stroke-miterlimit:10;" d="M 192.699219 188.429688 L 184.699219 196.136719 "/>
<path style="fill:none;stroke-width:1.2;stroke-linecap:butt;stroke-linejoin:miter;stroke:rgb(0%,0%,0%);stroke-opacity:1;stroke-miterlimit:10;" d="M 222.050781 186.871094 L 227.398438 208.4375 "/>
<path style="fill:none;stroke-width:1.2;stroke-linecap:butt;stroke-linejoin:miter;stroke:rgb(0%,0%,0%);stroke-opacity:1;stroke-miterlimit:10;" d="M 227.660156 187.769531 L 231.9375 205.019531 "/>
<path style="fill:none;stroke-width:1.2;stroke-linecap:butt;stroke-linejoin:miter;stroke:rgb(0%,0%,0%);stroke-opacity:1;stroke-miterlimit:10;" d="M 238.050781 171.457031 L 222.050781 186.871094 "/>
<path style="fill:none;stroke-width:1.2;stroke-linecap:butt;stroke-linejoin:miter;stroke:rgb(0%,0%,0%);stroke-opacity:1;stroke-miterlimit:10;" d="M 227.398438 208.4375 L 248.75 214.585938 "/>
<path style="fill:none;stroke-width:1.2;stroke-linecap:butt;stroke-linejoin:miter;stroke:rgb(0%,0%,0%);stroke-opacity:1;stroke-miterlimit:10;" d="M 248.75 214.585938 L 264.75 199.171875 "/>
<path style="fill:none;stroke-width:1.2;stroke-linecap:butt;stroke-linejoin:miter;stroke:rgb(0%,0%,0%);stroke-opacity:1;stroke-miterlimit:10;" d="M 246.722656 209.28125 L 259.523438 196.949219 "/>
<path style="fill:none;stroke-width:1.2;stroke-linecap:butt;stroke-linejoin:miter;stroke:rgb(0%,0%,0%);stroke-opacity:1;stroke-miterlimit:10;" d="M 264.75 199.171875 L 259.402344 177.605469 "/>
<path style="fill:none;stroke-width:1.2;stroke-linecap:butt;stroke-linejoin:miter;stroke:rgb(0%,0%,0%);stroke-opacity:1;stroke-miterlimit:10;" d="M 259.402344 177.605469 L 238.050781 171.457031 "/>
<path style="fill:none;stroke-width:1.2;stroke-linecap:butt;stroke-linejoin:miter;stroke:rgb(0%,0%,0%);stroke-opacity:1;stroke-miterlimit:10;" d="M 255.820312 182.015625 L 238.738281 177.09375 "/>
<path style="fill:none;stroke-width:1.2;stroke-linecap:butt;stroke-linejoin:miter;stroke:rgb(0%,0%,100%);stroke-opacity:1;stroke-miterlimit:10;" d="M 184.699219 196.136719 L 174.023438 193.0625 "/>
<path style="fill:none;stroke-width:1.2;stroke-linecap:butt;stroke-linejoin:miter;stroke:rgb(80%,80%,0%);stroke-opacity:1;stroke-miterlimit:10;" d="M 174.023438 193.0625 L 163.351562 189.988281 "/>
<path style=" stroke:none;fill-rule:nonzero;fill:rgb(100%,100%,100%);fill-opacity:1;" d="M 177.699219 190.636719 L 191.699219 190.636719 L 191.699219 201.636719 L 177.699219 201.636719 Z M 177.699219 190.636719 "/>
<g style="fill:rgb(0%,0%,100%);fill-opacity:1;">
  <use xlink:href="#glyph0-2" x="177.699219" y="199.299805"/>
  <use xlink:href="#glyph0-3" x="184.676758" y="199.299805"/>
</g>
<path style="fill:none;stroke-width:1.2;stroke-linecap:butt;stroke-linejoin:miter;stroke:rgb(80%,80%,0%);stroke-opacity:1;stroke-miterlimit:10;" d="M 165.863281 190.710938 L 168.9375 180.035156 "/>
<path style="fill:none;stroke-width:1.2;stroke-linecap:butt;stroke-linejoin:miter;stroke:rgb(100%,0%,0%);stroke-opacity:1;stroke-miterlimit:10;" d="M 168.9375 180.035156 L 172.011719 169.363281 "/>
<path style="fill:none;stroke-width:1.2;stroke-linecap:butt;stroke-linejoin:miter;stroke:rgb(80%,80%,0%);stroke-opacity:1;stroke-miterlimit:10;" d="M 160.839844 189.265625 L 163.914062 178.589844 "/>
<path style="fill:none;stroke-width:1.2;stroke-linecap:butt;stroke-linejoin:miter;stroke:rgb(100%,0%,0%);stroke-opacity:1;stroke-miterlimit:10;" d="M 163.914062 178.589844 L 166.988281 167.914062 "/>
<path style="fill:none;stroke-width:1.2;stroke-linecap:butt;stroke-linejoin:miter;stroke:rgb(80%,80%,0%);stroke-opacity:1;stroke-miterlimit:10;" d="M 160.839844 189.265625 L 157.761719 199.941406 "/>
<path style="fill:none;stroke-width:1.2;stroke-linecap:butt;stroke-linejoin:miter;stroke:rgb(100%,0%,0%);stroke-opacity:1;stroke-miterlimit:10;" d="M 157.761719 199.941406 L 154.6875 210.613281 "/>
<path style="fill:none;stroke-width:1.2;stroke-linecap:butt;stroke-linejoin:miter;stroke:rgb(80%,80%,0%);stroke-opacity:1;stroke-miterlimit:10;" d="M 165.863281 190.710938 L 162.785156 201.386719 "/>
<path style="fill:none;stroke-width:1.2;stroke-linecap:butt;stroke-linejoin:miter;stroke:rgb(100%,0%,0%);stroke-opacity:1;stroke-miterlimit:10;" d="M 162.785156 201.386719 L 159.710938 212.0625 "/>
<path style="fill:none;stroke-width:1.2;stroke-linecap:butt;stroke-linejoin:miter;stroke:rgb(80%,80%,0%);stroke-opacity:1;stroke-miterlimit:10;" d="M 163.351562 189.988281 L 152.675781 186.914062 "/>
<path style="fill:none;stroke-width:1.2;stroke-linecap:butt;stroke-linejoin:miter;stroke:rgb(0%,0%,0%);stroke-opacity:1;stroke-miterlimit:10;" d="M 152.675781 186.914062 L 142 183.839844 "/>
<path style=" stroke:none;fill-rule:nonzero;fill:rgb(100%,100%,100%);fill-opacity:1;" d="M 160.351562 184.488281 L 166.351562 184.488281 L 166.351562 195.488281 L 160.351562 195.488281 Z M 160.351562 184.488281 "/>
<g style="fill:rgb(80%,80%,0%);fill-opacity:1;">
  <use xlink:href="#glyph0-4" x="160.351562" y="193.151367"/>
</g>
<path style=" stroke:none;fill-rule:nonzero;fill:rgb(100%,100%,100%);fill-opacity:1;" d="M 165.5 163.136719 L 173.5 163.136719 L 173.5 174.136719 L 165.5 174.136719 Z M 165.5 163.136719 "/>
<g style="fill:rgb(100%,0%,0%);fill-opacity:1;">
  <use xlink:href="#glyph0-1" x="165.5" y="171.799805"/>
</g>
<path style=" stroke:none;fill-rule:nonzero;fill:rgb(100%,100%,100%);fill-opacity:1;" d="M 153.199219 205.839844 L 161.199219 205.839844 L 161.199219 216.839844 L 153.199219 216.839844 Z M 153.199219 205.839844 "/>
<g style="fill:rgb(100%,0%,0%);fill-opacity:1;">
  <use xlink:href="#glyph0-1" x="153.199219" y="214.50293"/>
</g>
<path style="fill:none;stroke-width:1.2;stroke-linecap:butt;stroke-linejoin:miter;stroke:rgb(0%,0%,0%);stroke-opacity:1;stroke-miterlimit:10;" d="M 142 183.839844 L 136.648438 162.273438 "/>
<path style="fill:none;stroke-width:1.2;stroke-linecap:butt;stroke-linejoin:miter;stroke:rgb(0%,0%,0%);stroke-opacity:1;stroke-miterlimit:10;" d="M 136.390625 182.941406 L 132.109375 165.691406 "/>
<path style="fill:none;stroke-width:1.2;stroke-linecap:butt;stroke-linejoin:miter;stroke:rgb(0%,0%,0%);stroke-opacity:1;stroke-miterlimit:10;" d="M 126 199.253906 L 142 183.839844 "/>
<path style="fill:none;stroke-width:1.2;stroke-linecap:butt;stroke-linejoin:miter;stroke:rgb(0%,0%,0%);stroke-opacity:1;stroke-miterlimit:10;" d="M 136.648438 162.273438 L 115.300781 156.125 "/>
<path style="fill:none;stroke-width:1.2;stroke-linecap:butt;stroke-linejoin:miter;stroke:rgb(0%,0%,0%);stroke-opacity:1;stroke-miterlimit:10;" d="M 115.300781 156.125 L 99.300781 171.539062 "/>
<path style="fill:none;stroke-width:1.2;stroke-linecap:butt;stroke-linejoin:miter;stroke:rgb(0%,0%,0%);stroke-opacity:1;stroke-miterlimit:10;" d="M 117.328125 161.429688 L 104.527344 173.761719 "/>
<path style="fill:none;stroke-width:1.2;stroke-linecap:butt;stroke-linejoin:miter;stroke:rgb(0%,0%,0%);stroke-opacity:1;stroke-miterlimit:10;" d="M 99.300781 171.539062 L 104.648438 193.105469 "/>
<path style="fill:none;stroke-width:1.2;stroke-linecap:butt;stroke-linejoin:miter;stroke:rgb(0%,0%,0%);stroke-opacity:1;stroke-miterlimit:10;" d="M 99.300781 171.539062 L 77.949219 165.390625 "/>
<path style="fill:none;stroke-width:1.2;stroke-linecap:butt;stroke-linejoin:miter;stroke:rgb(0%,0%,0%);stroke-opacity:1;stroke-miterlimit:10;" d="M 104.648438 193.105469 L 126 199.253906 "/>
<path style="fill:none;stroke-width:1.2;stroke-linecap:butt;stroke-linejoin:miter;stroke:rgb(0%,0%,0%);stroke-opacity:1;stroke-miterlimit:10;" d="M 108.230469 188.695312 L 125.3125 193.617188 "/>
<path style="fill:none;stroke-width:1.2;stroke-linecap:butt;stroke-linejoin:miter;stroke:rgb(0%,0%,0%);stroke-opacity:1;stroke-miterlimit:10;" d="M 77.949219 165.390625 L 72.601562 143.828125 "/>
<path style="fill:none;stroke-width:1.2;stroke-linecap:butt;stroke-linejoin:miter;stroke:rgb(0%,0%,0%);stroke-opacity:1;stroke-miterlimit:10;" d="M 72.339844 164.492188 L 68.0625 147.242188 "/>
<path style="fill:none;stroke-width:1.2;stroke-linecap:butt;stroke-linejoin:miter;stroke:rgb(0%,0%,0%);stroke-opacity:1;stroke-miterlimit:10;" d="M 61.949219 180.804688 L 77.949219 165.390625 "/>
<path style="fill:none;stroke-width:1.2;stroke-linecap:butt;stroke-linejoin:miter;stroke:rgb(0%,0%,0%);stroke-opacity:1;stroke-miterlimit:10;" d="M 72.601562 143.828125 L 51.25 137.675781 "/>
<path style="fill:none;stroke-width:1.2;stroke-linecap:butt;stroke-linejoin:miter;stroke:rgb(0%,0%,0%);stroke-opacity:1;stroke-miterlimit:10;" d="M 51.25 137.675781 L 35.25 153.09375 "/>
<path style="fill:none;stroke-width:1.2;stroke-linecap:butt;stroke-linejoin:miter;stroke:rgb(0%,0%,0%);stroke-opacity:1;stroke-miterlimit:10;" d="M 53.277344 142.984375 L 40.476562 155.316406 "/>
<path style="fill:none;stroke-width:1.2;stroke-linecap:butt;stroke-linejoin:miter;stroke:rgb(0%,0%,0%);stroke-opacity:1;stroke-miterlimit:10;" d="M 35.25 153.09375 L 40.597656 174.65625 "/>
<path style="fill:none;stroke-width:1.2;stroke-linecap:butt;stroke-linejoin:miter;stroke:rgb(0%,0%,0%);stroke-opacity:1;stroke-miterlimit:10;" d="M 40.597656 174.65625 L 61.949219 180.804688 "/>
<path style="fill:none;stroke-width:1.2;stroke-linecap:butt;stroke-linejoin:miter;stroke:rgb(0%,0%,0%);stroke-opacity:1;stroke-miterlimit:10;" d="M 44.179688 170.246094 L 61.261719 175.167969 "/>
</g>
</svg>

<svg xmlns="http://www.w3.org/2000/svg" xmlns:xlink="http://www.w3.org/1999/xlink" width="300pt" height="300pt" viewBox="0 0 300 300"><defs><symbol overflow="visible"><path d="M.453 1.594v-7.938h4.5v7.938zm.5-.5h3.5v-6.938h-3.5zm0 0"/></symbol><symbol overflow="visible" id="a"><path d="M3.547-5.953c-.65 0-1.164.242-1.547.72-.375.48-.563 1.13-.563 1.952 0 .835.188 1.49.563 1.967.383.48.898.72 1.547.72.644 0 1.156-.24 1.53-.72.376-.476.564-1.132.564-1.968 0-.822-.187-1.474-.562-1.954-.375-.477-.887-.72-1.53-.72zm0-.734c.914 0 1.648.312 2.203.937.55.617.828 1.438.828 2.47 0 1.042-.277 1.87-.828 2.483-.555.617-1.29.922-2.203.922-.93 0-1.668-.305-2.22-.922C.774-1.41.5-2.237.5-3.28c0-1.033.273-1.853.828-2.47.55-.625 1.29-.938 2.22-.938zm0 0"/></symbol><symbol overflow="visible" id="b"><path d="M.89-6.563H2.08l2.906 5.485v-5.484h.86V0H4.656L1.75-5.484V0H.89zm0 0"/></symbol><symbol overflow="visible" id="c"><path d="M.89-6.563h.876v2.688H5v-2.688h.89V0H5v-3.125H1.766V0H.89zm0 0"/></symbol><symbol overflow="visible" id="d"><path d="M4.813-6.344v.86c-.336-.157-.653-.27-.954-.344-.294-.082-.58-.125-.86-.125-.492 0-.867.094-1.125.28-.262.19-.39.454-.39.798 0 .293.085.512.265.656.176.15.504.267.984.36l.547.11c.658.125 1.142.352 1.454.672.32.312.485.734.485 1.265 0 .637-.216 1.122-.642 1.454-.43.325-1.055.485-1.875.485-.312 0-.648-.04-1-.11C1.36-.046 1-.147.625-.296v-.906c.352.2.703.35 1.047.453.35.105.695.156 1.03.156.5 0 .884-.097 1.157-.297.28-.196.42-.485.42-.86 0-.32-.1-.57-.296-.75-.2-.176-.523-.313-.968-.406l-.547-.11C1.81-3.148 1.33-3.36 1.03-3.64.74-3.923.595-4.313.595-4.813c0-.57.203-1.024.61-1.36.405-.344.968-.516 1.687-.516.313 0 .626.032.938.094.32.055.65.137.985.25zm0 0"/></symbol></defs><g><path fill="#fff" d="M0 0h300v300H0z"/><path d="M228.152 85.414l-8 7.707" stroke-width="1.2" stroke="#000" stroke-miterlimit="10" fill="none"/><path d="M220.152 93.12l-8 7.708M212.152 100.828l2.672 10.785" stroke-width="1.2" stroke="#f00" stroke-miterlimit="10" fill="none"/><path d="M214.824 111.613l2.676 10.782" stroke-width="1.2" stroke="#000" stroke-miterlimit="10" fill="none"/><path d="M208.152 95.328h8v11h-8zm0 0" fill="#fff"/><use xlink:href="#a" x="208.152" y="103.991" fill="#f00"/><path d="M216.777 124.906l10.676 3.074" stroke-width="1.2" stroke="#000" stroke-miterlimit="10" fill="none"/><path d="M227.453 127.98l10.676 3.075" stroke-width="1.2" stroke="#f00" stroke-miterlimit="10" fill="none"/><path d="M218.223 119.883l10.675 3.074" stroke-width="1.2" stroke="#000" stroke-miterlimit="10" fill="none"/><path d="M228.898 122.957l10.676 3.074" stroke-width="1.2" stroke="#f00" stroke-miterlimit="10" fill="none"/><path d="M201.5 137.81m2.488-1.677l-.722-.75m3.214-.922l-1.45-1.503m3.94-.172l-2.173-2.254m4.66.58l-2.894-3m5.382 1.327l-3.617-3.753m6.11 2.078l-4.344-4.504m6.832 2.832l-5.067-5.258m6.363 4.387l-5.442-5.65" stroke="#000" stroke-miterlimit="10" fill="none"/><path d="M234.852 123.043h8v11h-8zm0 0" fill="#fff"/><use xlink:href="#a" x="234.852" y="131.706" fill="#f00"/><path d="M201.5 137.81l-21.563 5.346M195.352 159.16l6.148-21.35" stroke-width="1.2" stroke="#000" stroke-miterlimit="10" fill="none"/><path d="M195.352 159.16l-12.594-18.722-5.645 5.44zm0 0"/><path d="M195.352 159.16l5.347 21.563" stroke-width="1.2" stroke="#000" stroke-miterlimit="10" fill="none"/><path d="M200.7 180.723l20.265 9.918 2.172-7.535zm0 0"/><path d="M200.7 180.723l-8 7.707" stroke-width="1.2" stroke="#000" stroke-miterlimit="10" fill="none"/><path d="M192.7 188.43l-8 7.707" stroke-width="1.2" stroke="#00f" stroke-miterlimit="10" fill="none"/><path d="M222.05 186.87l5.348 21.567M227.66 187.77l4.278 17.25M238.05 171.457l-16 15.414M227.398 208.438l21.352 6.148M248.75 214.586l16-15.414M246.723 209.28l12.8-12.33M264.75 199.172l-5.348-21.567M259.402 177.605l-21.35-6.148M255.82 182.016l-17.082-4.922" stroke-width="1.2" stroke="#000" stroke-miterlimit="10" fill="none"/><path d="M184.7 196.137l-10.677-3.075" stroke-width="1.2" stroke="#00f" stroke-miterlimit="10" fill="none"/><path d="M174.023 193.063l-10.67-3.075" stroke-width="1.2" stroke="#cc0" stroke-miterlimit="10" fill="none"/><path d="M177.7 190.637h14v11h-14zm0 0" fill="#fff"/><g fill="#00f"><use xlink:href="#b" x="177.699" y="199.3"/><use xlink:href="#c" x="184.677" y="199.3"/></g><path d="M165.863 190.71l3.075-10.675" stroke-width="1.2" stroke="#cc0" stroke-miterlimit="10" fill="none"/><path d="M168.938 180.035l3.074-10.672" stroke-width="1.2" stroke="#f00" stroke-miterlimit="10" fill="none"/><path d="M160.84 189.266l3.074-10.676" stroke-width="1.2" stroke="#cc0" stroke-miterlimit="10" fill="none"/><path d="M163.914 178.59l3.074-10.676" stroke-width="1.2" stroke="#f00" stroke-miterlimit="10" fill="none"/><path d="M160.84 189.266l-3.078 10.675" stroke-width="1.2" stroke="#cc0" stroke-miterlimit="10" fill="none"/><path d="M157.762 199.94l-3.075 10.673" stroke-width="1.2" stroke="#f00" stroke-miterlimit="10" fill="none"/><path d="M165.863 190.71l-3.078 10.677" stroke-width="1.2" stroke="#cc0" stroke-miterlimit="10" fill="none"/><path d="M162.785 201.387l-3.074 10.675" stroke-width="1.2" stroke="#f00" stroke-miterlimit="10" fill="none"/><path d="M163.352 189.988l-10.676-3.074" stroke-width="1.2" stroke="#cc0" stroke-miterlimit="10" fill="none"/><path d="M152.676 186.914L142 183.84" stroke-width="1.2" stroke="#000" stroke-miterlimit="10" fill="none"/><path d="M160.352 184.488h6v11h-6zm0 0" fill="#fff"/><use xlink:href="#d" x="160.352" y="193.151" fill="#cc0"/><path d="M165.5 163.137h8v11h-8zm0 0" fill="#fff"/><use xlink:href="#a" x="165.5" y="171.8" fill="#f00"/><path d="M153.2 205.84h8v11h-8zm0 0" fill="#fff"/><use xlink:href="#a" x="153.199" y="214.503" fill="#f00"/><path d="M142 183.84l-5.352-21.567M136.39 182.94l-4.28-17.25M126 199.254l16-15.414M136.648 162.273l-21.347-6.148M115.3 156.125l-16 15.414M117.328 161.43l-12.8 12.332M99.3 171.54l5.348 21.565M99.3 171.54l-21.35-6.15M104.648 193.105l21.352 6.15M108.23 188.695l17.082 4.922M77.95 165.39L72.6 143.83M72.34 164.492l-4.278-17.25M61.95 180.805l16-15.414M72.602 143.828l-21.352-6.152M51.25 137.676l-16 15.418M53.277 142.984l-12.8 12.332M35.25 153.094l5.348 21.562M40.598 174.656l21.35 6.15M44.18 170.246l17.082 4.922" stroke-width="1.2" stroke="#000" stroke-miterlimit="10" fill="none"/></g></svg>
